svgs/duotone/clone.svg

<svg xmlns="http://www.w3.org/2000/svg" viewBox="0 0 512 512"><!-- Font Awesome Pro 6.0.0-alpha2 by @fontawesome - https://fontawesome.com License - https://fontawesome.com/license (Commercial License) --><defs><style>.fa-secondary{opacity:.4}</style></defs><path d="M352 384V448C352 483.346 323.348 512 288 512H64C28.654 512 0 483.346 0 448V224C0 188.652 28.654 160 64 160H128V304C128 348.182 163.818 384 208 384H352Z" class="fa-secondary"/><path d="M512 64V288C512 323.346 483.346 352 448 352H224C188.654 352 160 323.346 160 288V64C160 28.652 188.654 0 224 0H448C483.346 0 512 28.652 512 64Z" class="fa-primary"/></svg>

<svg xmlns="http://www.w3.org/2000/svg" viewBox="0 0 512 512"><!--! Font Awesome Pro 6.0.0-alpha3 by @fontawesome - https://fontawesome.com License - https://fontawesome.com/license (Commercial License) --><defs><style>.fa-secondary{opacity:.4}</style></defs><path class="fa-primary" d="M512 64v224c0 35.35-28.65 64-64 64H224c-35.35 0-64-28.65-64-64V64c0-35.35 28.65-64 64-64h224C483.3 0 512 28.65 512 64z"/><path class="fa-secondary" d="M352 384v64c0 35.35-28.65 64-64 64H64c-35.35 0-64-28.65-64-64V224c0-35.35 28.65-64 64-64h64v144C128 348.2 163.8 384 208 384H352z"/></svg>
